/* XPM */
static const char * start_xpm[] = {
/* columns rows colors chars-per-pixel */
"22 22 186 2 ",
"   c #670707",
".  c #680707",
"X  c #670708",
"o  c #6A0808",
"O  c #69080A",
"+  c #6C0909",
"@  c #6D0909",
"#  c #6E0909",
"$  c #6F0909",
"%  c #6D080A",
"&  c #6E0A0A",
"*  c #700909",
"=  c #700B09",
"-  c #700A0A",
";  c #710A0A",
":  c #730A0A",
">  c #720B0A",
",  c #730B0B",
"<  c #740B0B",
"1  c #740D0C",
"2  c #750D0C",
"3  c #760D0C",
"4  c #7C0D0B",
"5  c #7A0D0C",
"6  c #7D0F0D",
"7  c #7E0E0D",
"8  c #7E100E",
"9  c #82110F",
"0  c #93120E",
"q  c #92130F",
"w  c #93130F",
"e  c #97140F",
"r  c #831310",
"t  c #851412",
"y  c #971612",
"u  c #9A1713",
"i  c #9C1611",
"p  c #9C1711",
"a  c #9D1712",
"s  c #9E1812",
"d  c #9F1812",
"f  c #9C1814",
"g  c #9F1915",
"h  c #9F1A14",
"j  c #A01813",
"k  c #A01913",
"l  c #A01914",
"z  c #A11914",
"x  c #A11A14",
"c  c #A11B15",
"v  c #A21A15",
"b  c #A31A15",
"n  c #A11B17",
"m  c #A31C15",
"M  c #A31C16",
"N  c #A41D16",
"B  c #A51D17",
"V  c #A31C18",
"C  c #A41D19",
"Z  c #A61D18",
"A  c #A61E18",
"S  c #A71E18",
"D  c #A71F18",
"F  c #A61F1A",
"G  c #A91F19",
"H  c #AA1F19",
"J  c #A92019",
"K  c #AA2019",
"L  c #AB2019",
"P  c #AB211A",
"I  c #AD211A",
"U  c #AE211A",
"Y  c #AC221B",
"T  c #AD221B",
"R  c #AE231C",
"E  c #AF231C",
"W  c #AE241F",
"Q  c #B0231D",
"!  c #B3231C",
"~  c #B0241D",
"^  c #B1241D",
"/  c #B2251E",
"(  c #B3251E",
")  c #B3261F",
"_  c #B4261F",
"`  c #B5261F",
"'  c #B7261E",
"]  c #B9271F",
"[  c #AF2621",
"{  c #B22621",
"}  c #B52720",
"|  c #B42621",
" . c #B62720",
".. c #B82720",
"X. c #B72820",
"o. c #B72821",
"O. c #B82821",
"+. c #BA2820",
"@. c #BA2922",
"#. c #BB2922",
"$. c #BA2A22",
"%. c #BB2A23",
"&. c #BD2921",
"*. c #BC2A23",
"=. c #BC2B23",
"-. c #BD2B23",
";. c #BD2B24",
":. c #BE2C24",
">. c #BF2C24",
",. c #C02D25",
"<. c #C22C24",
"1. c #C22C25",
"2. c #C12C26",
"3. c #C12D26",
"4. c #C32D26",
"5. c #C12E26",
"6. c #C22E26",
"7. c #C32E26",
"8. c #C62E27",
"9. c #C62F27",
"0. c #C42F28",
"q. c #C52F28",
"w. c #C43028",
"e. c #C53028",
"r. c #C63028",
"t. c #C63129",
"y. c #C73129",
"u. c #C93029",
"i. c #C93129",
"p. c #CA3129",
"a. c #C8322A",
"s. c #C9322A",
"d. c #CB332B",
"f. c #CB342B",
"g. c #CE342B",
"h. c #CA342C",
"j. c #CC352C",
"k. c #CE342C",
"l. c #CE352C",
"z. c #CE362D",
"x. c #CF362D",
"c. c #CF362E",
"v. c #CF372E",
"b. c #D3362D",
"n. c #D0362E",
"m. c #D3372E",
"M. c #D5352C",
"N. c #D4372E",
"B. c #D7372E",
"V. c #D8342B",
"C. c #D8372E",
"Z. c #D9382F",
"A. c #DA382F",
"S. c #DE382E",
"D. c #D33930",
"F. c #D43830",
"G. c #D43930",
"H. c #D73930",
"J. c #D83930",
"K. c #DA3B32",
"L. c #DE3A30",
"P. c #DA3C31",
"I. c #E0392F",
"U. c #E43D33",
"Y. c #DD4138",
"T. c #DC443B",
"R. c #E64036",
"E. c #DF4941",
"W. c #DE4C44",
"Q. c #E0544B",
"!. c #E5584F",
"~. c #E25B51",
"^. c #E66D64",
"/. c #E87369",
"(. c #E8766D",
"). c #F4988D",
"_. c #F8A59C",
"`. c #FBB1A7",
"'. c #FDB4A9",
"]. c #FFC1B7",
"[. c #FFC7BC",
"{. c #FFCDC2",
"}. c #FFCDC4",
"|. c #FFD5CA",
" X c #FFDBD2",
".X c None",
/* pixels */
".X.X.X.X.X.X.X.X.X.X.X.X.X.X.X.X.X.X.X.X.X.X",
".X.X.X.X.X.X.X.X.X.X.X.X.X.X.X.X.X.X.X.X.X.X",
".X.X.X.X.X.X.X.X.X@ 3 3 @ .X.X.X.X.X.X.X.X.X",
".X.X.X.X.X.X.Xt [ 0.u.8.#.F 9 . .X.X.X.X.X.X",
".X.X.X.X.X* | S.I.C.m.g.u.8.-.V * .X.X.X.X.X",
".X.X.X.X@ 4.R.~.^.W.M.j.u.4.#.-.H * .X.X.X.X",
".X.X.X.X{ U.(.|.}.[.Q.M.h.0.:.| _ h X .X.X.X",
".X.X.Xr J.J._.{.'. X/.V.j.e.:.#.^ T 7 .X.X.X",
".X.X.XW P.Z.!.`.].).T.m.f.0.:.#.^ T u .X.X.X",
".X.X@ 4.M.F.L.Y.E.J.M.j.u.8.-.| E J n @ .X.X",
".X.X3 8.j.m.D.F.Z.F.j.u.e.4.#._ T F n * .X.X",
".X.X3 4.u.u.j.j.j.j.u.e.4.-.X.^ J B n < .X.X",
".X.X@ ..8.e.e.u.u.e.e.4.;.#.^ T F M i @ .X.X",
".X.X.XF 4.:.4.4.4.4.:.-.#.^ E J B n q .X.X.X",
".X.X.X8 #.X.#.#.#.#.#.| ^ E J B h d 5 .X.X.X",
".X.X.X  n ] ^ _ _ _ ^ Q T J B h d q o .X.X.X",
".X.X.X.X* F Q T T T J J F M h d e * .X.X.X.X",
".X.X.X.X.X* h H H F B M n j i q * .X.X.X.X.X",
".X.X.X.X.X.Xo 7 y n n j i q 4 @ .X.X.X.X.X.X",
".X.X.X.X.X.X.X.X.X* < < * .X.X.X.X.X.X.X.X.X",
".X.X.X.X.X.X.X.X.X.X.X.X.X.X.X.X.X.X.X.X.X.X",
".X.X.X.X.X.X.X.X.X.X.X.X.X.X.X.X.X.X.X.X.X.X"
};
